!!!Genre:	Ot azoy
!!!Mode:	Minor
!!!Listening/dance:	dance
!!!:	*G:frey
!!!One_Mode:	no
**kern
*I"P1
*clefG2
*k[b-e-]
*g:
*M2/4
*>A
=1
8gL
8dJ
4g
=2
8gL
8dJ
4g
=3
8gL
8b-
8a
8ccJ
=4
4b-
4b-
=5
8b-L
8fJ
4b-
=6
8b-L
8fJ
4b-
=7
8b-L
8ddJ
8ccL
16b-L
16aJJ
=8
4g
4g
=9:|!|:
*>B
*k[b-e-a-]
*>bM
*-
